icons/outline/face-frown.svg

<svg width="24" height="24" viewBox="0 0 24 24" fill="none" xmlns="http://www.w3.org/2000/svg">
<path d="M15.1823 16.3179C14.3075 15.4432 13.1623 15.0038 12.0158 14.9999C10.859 14.996 9.70095 15.4353 8.81834 16.3179M21 12C21 16.9706 16.9706 21 12 21C7.02944 21 3 16.9706 3 12C3 7.02944 7.02944 3 12 3C16.9706 3 21 7.02944 21 12ZM9.75 9.75C9.75 10.1642 9.58211 10.5 9.375 10.5C9.16789 10.5 9 10.1642 9 9.75C9 9.33579 9.16789 9 9.375 9C9.58211 9 9.75 9.33579 9.75 9.75ZM9.375 9.75H9.3825V9.765H9.375V9.75ZM15 9.75C15 10.1642 14.8321 10.5 14.625 10.5C14.4179 10.5 14.25 10.1642 14.25 9.75C14.25 9.33579 14.4179 9 14.625 9C14.8321 9 15 9.33579 15 9.75ZM14.625 9.75H14.6325V9.765H14.625V9.75Z" stroke="#0F172A" stroke-width="1.5" stroke-linecap="round" stroke-linejoin="round"/>
</svg>

<svg xmlns="http://www.w3.org/2000/svg" fill="none" viewBox="0 0 24 24" stroke-width="1.5" stroke="currentColor" aria-hidden="true">
  <path stroke-linecap="round" stroke-linejoin="round" d="M15.182 16.318A4.486 4.486 0 0012.016 15a4.486 4.486 0 00-3.198 1.318M21 12a9 9 0 11-18 0 9 9 0 0118 0zM9.75 9.75c0 .414-.168.75-.375.75S9 10.164 9 9.75 9.168 9 9.375 9s.375.336.375.75zm-.375 0h.008v.015h-.008V9.75zm5.625 0c0 .414-.168.75-.375.75s-.375-.336-.375-.75.168-.75.375-.75.375.336.375.75zm-.375 0h.008v.015h-.008V9.75z"/>
</svg>
